medical-bag.svg

<svg fill="currentColor" viewBox="0 0 24 24"><path d="M10 3 8 5v2H5C3.85 7 3.12 8 3 9L2 19c-.12 1 .54 2 2 2h16c1.46 0 2.12-1 2-2L21 9c-.12-1-.94-2-2-2h-3V5l-2-2zm0 2h4v2h-4zm1 5h2v3h3v2h-3v3h-2v-3H8v-2h3z"/></svg>

<svg  viewBox="0 0 24 24" fill="currentColor"><path  d="M10,3L8,5V7H5C3.85,7 3.12,8 3,9L2,19C1.88,20 2.54,21 4,21H20C21.46,21 22.12,20 22,19L21,9C20.88,8 20.06,7 19,7H16V5L14,3H10M10,5H14V7H10V5M11,10H13V13H16V15H13V18H11V15H8V13H11V10Z"/></svg>
